public/assets/illustrations/circles.svg

<svg xmlns="http://www.w3.org/2000/svg" width="992" height="802" fill="none" opacity=".2" stroke="#e0ddd6" stroke-width="4" xmlns:v="https://vecta.io/nano"><path d="M759.66 123.88c8.642 10.477 9.047 26.586 1.382 47.387-7.633 20.711-23.087 45.541-45.169 72.886-44.146 54.667-114.487 119.028-200.575 180.072S343.796 531.355 275.331 556.54c-34.246 12.597-64.139 19.923-87.696 21.328-23.66 1.411-40.321-3.171-48.963-13.648s-9.047-26.586-1.382-47.387c7.633-20.711 23.087-45.541 45.169-72.886 44.146-54.667 114.488-119.027 200.575-180.072s171.502-107.13 239.967-132.314c34.246-12.598 64.139-19.923 87.696-21.329 23.66-1.411 40.321 3.171 48.963 13.648z"/><path d="M813.099 188.665c8.641 10.477 9.047 26.586 1.381 47.387-7.632 20.712-23.087 45.542-45.169 72.887-44.146 54.667-114.487 119.027-200.574 180.071S397.235 596.14 328.77 621.325c-34.247 12.597-64.14 19.923-87.697 21.328-23.659 1.412-40.321-3.17-48.962-13.647s-9.048-26.586-1.382-47.387c7.632-20.711 23.087-45.541 45.169-72.886 44.146-54.668 114.487-119.028 200.574-180.072s171.503-107.13 239.967-132.315c34.247-12.597 64.14-19.923 87.697-21.328 23.659-1.411 40.321 3.171 48.963 13.647z"/><path d="M853.177 237.255c8.641 10.477 9.047 26.586 1.382 47.387-7.633 20.711-23.088 45.541-45.17 72.886-44.146 54.667-114.487 119.028-200.574 180.072S437.313 644.73 368.848 669.915c-34.247 12.597-64.14 19.923-87.697 21.328-23.659 1.411-40.32-3.171-48.962-13.648s-9.048-26.586-1.382-47.387c7.632-20.711 23.087-45.541 45.169-72.886 44.146-54.667 114.487-119.027 200.574-180.072s171.503-107.13 239.967-132.314c34.247-12.598 64.14-19.923 87.697-21.329 23.659-1.411 40.321 3.171 48.963 13.648z"/></svg>

<svg width="992" height="802" viewBox="0 0 992 802" fill="none" xmlns="http://www.w3.org/2000/svg">
<title>Circles</title>
<g opacity="0.2">
<path d="M759.66 123.88C768.302 134.357 768.707 150.466 761.042 171.267C753.409 191.978 737.955 216.808 715.873 244.153C671.727 298.82 601.386 363.181 515.298 424.225C429.211 485.269 343.796 531.355 275.331 556.54C241.085 569.137 211.192 576.463 187.635 577.868C163.975 579.279 147.314 574.697 138.672 564.22C130.03 553.744 129.625 537.634 137.29 516.833C144.923 496.122 160.377 471.292 182.459 443.947C226.605 389.28 296.947 324.92 383.034 263.875C469.121 202.831 554.536 156.745 623.001 131.561C657.247 118.963 687.14 111.638 710.697 110.232C734.357 108.821 751.018 113.403 759.66 123.88Z" stroke="#E0DDD6" stroke-width="4"/>
<path d="M813.099 188.665C821.74 199.142 822.146 215.251 814.48 236.052C806.848 256.764 791.393 281.594 769.311 308.939C725.165 363.606 654.824 427.966 568.737 489.01C482.65 550.055 397.235 596.14 328.77 621.325C294.523 633.922 264.63 641.248 241.073 642.653C217.414 644.065 200.752 639.483 192.111 629.006C183.469 618.529 183.063 602.42 190.729 581.619C198.361 560.908 213.816 536.078 235.898 508.733C280.044 454.065 350.385 389.705 436.472 328.661C522.56 267.617 607.975 221.531 676.439 196.346C710.686 183.749 740.579 176.423 764.136 175.018C787.795 173.607 804.457 178.189 813.099 188.665Z" stroke="#E0DDD6" stroke-width="4"/>
<path d="M853.177 237.255C861.818 247.732 862.224 263.841 854.559 284.642C846.926 305.353 831.471 330.183 809.389 357.528C765.243 412.195 694.902 476.556 608.815 537.6C522.728 598.644 437.313 644.73 368.848 669.915C334.601 682.512 304.708 689.838 281.151 691.243C257.492 692.654 240.831 688.072 232.189 677.595C223.547 667.119 223.141 651.009 230.807 630.208C238.439 609.497 253.894 584.667 275.976 557.322C320.122 502.655 390.463 438.295 476.55 377.25C562.638 316.206 648.053 270.12 716.517 244.936C750.764 232.338 780.657 225.013 804.214 223.607C827.873 222.196 844.535 226.778 853.177 237.255Z" stroke="#E0DDD6" stroke-width="4"/>
</g>
</svg>
